;FLAVOR:Marlin
;TIME:3054
;Filament used: 4.78929m
;Layer height: 0.3
;MINX:76.1
;MINY:19.083
;MINZ:0.3
;MAXX:145.933
;MAXY:97.197
;MAXZ:25.5
;Generated with Cura_SteamEngine main
M140 S60
M105
M190 S60
M104 S200
M105
M109 S200
M82 ;absolute extrusion mode
G21 ;metric values
G90 ;absolute positioning
M82 ;set extruder to absolute mode
M107 ;start with the fan off
G28 X0 Y0 ;move X/Y to min endstops
G28 Z0 ;move Z to min endstops
G1 Z15.0 F100 ;move the platform down 15mm
G92 E0 ;zero the extruded length
G1 F200 E3 ;extrude 3mm of feed stock
G92 E0 ;zero the extruded length again
G1 F100
G0 Y20 F100
M117 Printing...
G5
G92 E0
G92 E0
G1 F2400 E-6
;LAYER_COUNT:85
;LAYER:0
M107
M204 S3000
M205 X10 Y10
G1 F600 Z0.375
G0 F3000 X79.396 Y27.217 Z0.375
G0 X78.717 Y30.631
M204 S1800
M205 X8 Y8
;TYPE:SKIRT
G1 F600 Z0.3
G1 F2400 E0
G1 X78.752 Y30.135 E0.03473
G1 X78.843 Y29.425 E0.08473
G1 X78.974 Y28.733 E0.13392
G1 X79.083 Y28.235 E0.16953
G1 X79.396 Y27.217 E0.24391
G1 X79.796 Y26.233 E0.3181
G1 X80.36 Y25.194 E0.40068
G1 X80.831 Y24.48 E0.46042
G1 X81.236 Y23.948 E0.50712
G1 X81.625 Y23.492 E0.54899
G1 X82.015 Y23.069 E0.58917
G1 X82.865 Y22.283 E0.67003
G1 X83.77 Y21.618 E0.74847
G1 X84.676 Y21.068 E0.8225
G1 X85.438 Y20.693 E0.88182
G1 X86.113 Y20.418 E0.93273
G1 X86.642 Y20.236 E0.9718
G1 X87.18 Y20.071 E1.01111
G1 X88.223 Y19.845 E1.08565
G1 X89.06 Y19.738 E1.14459
G1 X89.734 Y19.698 E1.19175
G1 X90.32 Y19.695 E1.23268
G1 X91.634 Y19.736 E1.3245
G1 X92.918 Y19.794 E1.41427
G1 X95.558 Y19.839 E1.59869
G1 X98.239 Y19.81 E1.78596
G1 X100.865 Y19.707 E1.96952
G1 X102.05 Y19.626 E2.05248
G1 X103.3 Y19.556 E2.13993
G1 X106.546 Y19.609 E2.36668
G1 X109.148 Y19.574 E2.54843
G1 X111.824 Y19.463 E2.7355
G1 X115.133 Y19.214 E2.96728
G1 X116.45 Y19.105 E3.05958
G1 X116.978 Y19.083 E3.09649
G1 X117.569 Y19.09 E3.13777
G1 X118.287 Y19.127 E3.18799
G1 X119.567 Y19.223 E3.27764
G1 X122.26 Y19.388 E3.46609
G1 X124.873 Y19.475 E3.6487
G1 X127.513 Y19.488 E3.8331
G1 X131.615 Y19.375 E4.11972
G1 X132.405 Y19.399 E4.17492
G1 X133.118 Y19.46 E4.2249
G1 X133.667 Y19.556 E4.26383
G1 X134.524 Y19.754 E4.32527
G1 X135.333 Y20 E4.38433
G1 X135.888 Y20.21 E4.42577
G1 X136.36 Y20.411 E4.4616
G1 X137.054 Y20.752 E4.51561
G1 X137.656 Y21.108 E4.56446
G1 X138.34 Y21.564 E4.62188
G1 X138.943 Y22.043 E4.67567
G1 X139.507 Y22.545 E4.72841
G1 X140.004 Y23.056 E4.7782
G1 X140.351 Y23.456 E4.81518
G1 X140.743 Y23.94 E4.85868
G1 X141.162 Y24.52 E4.90866
G1 X141.469 Y25.034 E4.95048
G1 X141.905 Y25.86 E5.01571
G1 X142.248 Y26.611 E5.07338
G1 X142.646 Y27.878 E5.16614
G1 X142.838 Y28.715 E5.22612
G1 X143.009 Y29.717 E5.29712
G1 X143.096 Y30.285 E5.33725
G1 X143.58 Y32.932 E5.5252
G1 X144.128 Y35.509 E5.70922
G1 X144.741 Y38.043 E5.89132
G1 X145.657 Y41.359 E6.1316
G1 X145.82 Y42.055 E6.18153
G1 X145.913 Y42.972 E6.24591
G1 X145.926 Y43.495 E6.28245
G1 X145.933 Y55.251 E7.10356
G1 X145.925 Y60.549 E7.47361
G1 X145.914 Y61.26 E7.52327
G1 X145.863 Y61.973 E7.5732
G1 X145.715 Y62.773 E7.63003
G1 X145.403 Y63.786 E7.70406
G1 X144.632 Y66.422 E7.89589
G1 X143.961 Y68.983 E8.0808
G1 X143.366 Y71.548 E8.26472
G1 X142.837 Y74.165 E8.4512
G1 X142.389 Y76.747 E8.63424
G1 X142.01 Y79.384 E8.82031
G1 X141.707 Y82.01 E9.00495
G1 X141.477 Y84.65 E9.19004
G1 X141.323 Y87.291 E9.37482
G1 X141.241 Y90.112 E9.57194
G1 X141.229 Y90.887 E9.62607
G1 X141.178 Y91.601 E9.67607
G1 X141.048 Y92.304 E9.72601
G1 X140.84 Y92.988 E9.77594
G1 X140.557 Y93.645 E9.82591
G1 X140.202 Y94.266 E9.87587
G1 X139.781 Y94.844 E9.92581
G1 X139.297 Y95.371 E9.97579
G1 X138.758 Y95.841 E10.02574
G1 X138.169 Y96.248 E10.07575
G1 X137.539 Y96.586 E10.12568
G1 X136.875 Y96.852 E10.17564
G1 X136.186 Y97.043 E10.22558
G1 X135.48 Y97.155 E10.27551
G1 X134.511 Y97.197 E10.34325
G1 X118.985 Y97.196 E11.42769
G1 X118.284 Y97.186 E11.47666
G1 X117.47 Y97.129 E11.53365
G1 X116.333 Y96.917 E11.61443
G1 X115.258 Y96.701 E11.69102
G1 X112.663 Y96.257 E11.8749
G1 X110.021 Y95.881 E12.0613
G1 X107.4 Y95.583 E12.24554
G1 X104.773 Y95.361 E12.42968
G1 X102.145 Y95.212 E12.61353
G1 X98.062 Y95.125 E12.89878
G1 X89.938 Y95.124 E13.46621
G1 X89.24 Y95.114 E13.51497
G1 X88.527 Y95.064 E13.56489
G1 X87.823 Y94.935 E13.61488
G1 X87.139 Y94.727 E13.66482
G1 X86.482 Y94.445 E13.71476
G1 X85.86 Y94.091 E13.76474
G1 X85.282 Y93.67 E13.81469
G1 X84.754 Y93.187 E13.86467
G1 X84.284 Y92.649 E13.91457
G1 X83.876 Y92.061 E13.96456
G1 X83.537 Y91.431 E14.01452
G1 X83.27 Y90.768 E14.06445
G1 X83.079 Y90.078 E14.11445
G1 X82.942 Y89.081 E14.18474
G1 X82.911 Y88.54 E14.22259
G1 X82.837 Y86.814 E14.34326
G1 X82.645 Y84.144 E14.53023
G1 X82.382 Y81.517 E14.71463
G1 X82.048 Y78.925 E14.89717
G1 X81.628 Y76.268 E15.08506
G1 X81.145 Y73.681 E15.26887
G1 X80.595 Y71.128 E15.45128
G1 X79.953 Y68.525 E15.63854
G1 X79.246 Y65.964 E15.82411
G1 X78.473 Y63.448 E16.00795
G1 X77.63 Y60.958 E16.19156
G1 X76.511 Y57.948 E16.41586
G1 X76.3 Y57.264 E16.46585
G1 X76.166 Y56.562 E16.51577
G1 X76.113 Y55.905 E16.56181
G1 X76.1 Y55.377 E16.5987
G1 X76.101 Y48.33 E17.0909
G1 X76.112 Y47.624 E17.14022
G1 X76.163 Y46.911 E17.19015
G1 X76.273 Y46.294 E17.23392
G1 X76.837 Y43.832 E17.41034
G1 X77.357 Y41.251 E17.59424
G1 X77.81 Y38.616 E17.78098
G1 X78.183 Y36.001 E17.96548
G1 X78.485 Y33.36 E18.15114
G1 X78.717 Y30.631 E18.34244
M204 S3000
M205 X10 Y10
G1 F2400 E12.34244
G0 F3000 X78.74 Y36.07
M204 S1800
M205 X8 Y8
G1 F2400 E18.34244
G1 X79.04 Y33.439 E18.5274
G1 X79.279 Y30.629 E18.72437
G1 X79.311 Y30.175 E18.75616
G1 X79.414 Y29.363 E18.81333
G1 X79.63 Y28.354 E18.8854
G1 X79.916 Y27.426 E18.95323
G1 X80.308 Y26.46 E19.02605
G1 X80.828 Y25.501 E19.10224
G1 X81.29 Y24.802 E19.16076
G1 X81.668 Y24.304 E19.20443
G1 X82.036 Y23.871 E19.24412
G1 X82.426 Y23.448 E19.28431
G1 X83.213 Y22.721 E19.35914
G1 X84.099 Y22.071 E19.43589
G1 X84.926 Y21.569 E19.50347
G1 X85.674 Y21.201 E19.56169
G1 X86.301 Y20.946 E19.60897
G1 X86.807 Y20.772 E19.64634
G1 X87.345 Y20.607 E19.68565
G1 X88.391 Y20.379 E19.76042
G1 X89.532 Y20.259 E19.84056
G1 X90.302 Y20.255 E19.89434
G1 X91.7 Y20.299 E19.99203
G1 X92.917 Y20.355 E20.07712
G1 X95.554 Y20.399 E20.26133
G1 X98.231 Y20.37 E20.44832
G1 X100.925 Y20.264 E20.63664
G1 X102.081 Y20.185 E20.71757
G1 X103.308 Y20.117 E20.8034
G1 X106.545 Y20.169 E21.02952
G1 X109.18 Y20.133 E21.21358
G1 X111.829 Y20.024 E21.39876
G1 X115.175 Y19.772 E21.63313
G1 X116.77 Y19.64 E21.74492
G1 X117.542 Y19.65 E21.79884
G1 X118.245 Y19.686 E21.84801
G1 X119.49 Y19.78 E21.93521
G1 X122.208 Y19.946 E22.12541
G1 X124.887 Y20.035 E22.31263
G1 X127.526 Y20.049 E22.49696
G1 X131.613 Y19.936 E22.78253
G1 X132.388 Y19.959 E22.83668
G1 X133.393 Y20.077 E22.90736
G1 X133.908 Y20.185 E22.94411
G1 X134.396 Y20.299 E22.97912
G1 X135.135 Y20.524 E23.03307
G1 X135.946 Y20.831 E23.09364
G1 X136.789 Y21.246 E23.15927
G1 X137.353 Y21.579 E23.20502
G1 X138.009 Y22.016 E23.26007
G1 X138.576 Y22.466 E23.31063
G1 X139.433 Y23.253 E23.3919
G1 X139.916 Y23.808 E23.44329
G1 X140.308 Y24.292 E23.48679
G1 X140.93 Y25.212 E23.56436
G1 X141.409 Y26.12 E23.63606
G1 X141.728 Y26.823 E23.68998
G1 X141.962 Y27.56 E23.74399
G1 X142.142 Y28.18 E23.78908
G1 X142.286 Y28.81 E23.83422
G1 X142.473 Y29.911 E23.91222
G1 X142.547 Y30.395 E23.94642
G1 X143.032 Y33.046 E24.13466
G1 X143.577 Y35.613 E24.31795
G1 X144.202 Y38.194 E24.50343
G1 X145.025 Y41.192 E24.72058
G1 X145.12 Y41.516 E24.74416
G1 X145.273 Y42.182 E24.79189
G1 X145.353 Y42.988 E24.84847
G1 X145.366 Y43.496 E24.88396
G1 X145.373 Y55.25 E25.70493
G1 X145.365 Y60.54 E26.07442
G1 X145.354 Y61.251 E26.12409
G1 X145.304 Y61.933 E26.17185
G1 X145.097 Y62.878 E26.23942
G1 X144.842 Y63.707 E26.3
G1 X144.093 Y66.267 E26.4863
G1 X143.423 Y68.825 E26.67099
G1 X142.815 Y71.446 E26.85892
G1 X142.285 Y74.068 E27.04576
G1 X141.833 Y76.674 E27.2305
G1 X141.459 Y79.274 E27.41397
G1 X141.148 Y81.968 E27.60339
G1 X140.919 Y84.604 E27.78819
G1 X140.765 Y87.243 E27.97283
G1 X140.68 Y90.182 E28.1782
G1 X140.669 Y90.878 E28.22682
G1 X140.619 Y91.56 E28.27458
G1 X140.489 Y92.231 E28.32232
G1 X140.282 Y92.882 E28.37003
G1 X140 Y93.504 E28.41773
G1 X139.647 Y94.089 E28.46545
G1 X139.229 Y94.629 E28.51315
G1 X138.75 Y95.117 E28.56091
G1 X138.218 Y95.545 E28.6086
G1 X137.639 Y95.908 E28.65633
G1 X137.022 Y96.201 E28.70404
G1 X136.375 Y96.42 E28.75175
G1 X135.706 Y96.562 E28.79952
G1 X134.873 Y96.637 E28.85794
G1 X118.993 Y96.636 E29.96709
G1 X118.292 Y96.626 E30.01606
G1 X117.305 Y96.528 E30.08534
G1 X116.359 Y96.351 E30.15256
G1 X115.359 Y96.151 E30.22379
G1 X112.762 Y95.706 E30.40782
G1 X110.093 Y95.326 E30.59612
G1 X107.441 Y95.025 E30.78255
G1 X104.814 Y94.802 E30.96669
G1 X102.16 Y94.652 E31.15236
G1 X98.074 Y94.565 E31.43782
G1 X89.946 Y94.564 E32.00553
G1 X89.248 Y94.554 E32.05428
G1 X88.567 Y94.505 E32.10197
G1 X87.896 Y94.376 E32.1497
G1 X87.245 Y94.169 E32.19741
G1 X86.622 Y93.888 E32.24515
G1 X86.036 Y93.536 E32.29289
G1 X85.496 Y93.118 E32.34059
G1 X85.008 Y92.64 E32.3883
G1 X84.579 Y92.108 E32.43604
G1 X84.215 Y91.53 E32.48375
G1 X83.921 Y90.913 E32.53148
G1 X83.702 Y90.266 E32.57919
G1 X83.559 Y89.598 E32.62691
G1 X83.502 Y89.049 E32.66546
G1 X83.466 Y88.425 E32.70912
G1 X83.394 Y86.75 E32.82622
G1 X83.205 Y84.118 E33.01052
G1 X82.939 Y81.463 E33.19689
G1 X82.6 Y78.836 E33.3819
G1 X82.181 Y76.181 E33.56964
G1 X81.694 Y73.57 E33.75515
G1 X81.135 Y70.979 E33.94029
G1 X80.496 Y68.386 E34.12682
G1 X79.789 Y65.828 E34.31218
G1 X79.007 Y63.282 E34.49821
G1 X78.147 Y60.739 E34.68571
G1 X77.036 Y57.752 E34.90831
G1 X76.836 Y57.099 E34.95601
G1 X76.713 Y56.427 E35.00373
G1 X76.673 Y55.889 E35.04141
G1 X76.66 Y55.377 E35.07718
G1 X76.661 Y48.339 E35.56876
G1 X76.672 Y47.633 E35.61807
G1 X76.722 Y46.952 E35.66577
G1 X76.819 Y46.419 E35.70361
G1 X77.385 Y43.951 E35.88046
G1 X77.908 Y41.354 E36.0655
G1 X78.366 Y38.686 E36.25457
G1 X78.74 Y36.07 E36.43915
M204 S3000
M205 X10 Y10
G1 F2400 E30.43915
G0 F3000 X78.459 Y41.449
M204 S1800
M205 X8 Y8
G1 F2400 E36.43915
G1 X78.916 Y38.791 E36.62752
G1 X79.295 Y36.143 E36.81436
G1 X79.599 Y33.477 E37.00178
G1 X79.832 Y30.73 E37.19433
G1 X79.869 Y30.215 E37.2304
G1 X79.944 Y29.628 E37.27173
G1 X80.068 Y28.972 E37.31836
G1 X80.177 Y28.474 E37.35397
G1 X80.436 Y27.635 E37.4153
G1 X80.819 Y26.689 E37.48658
G1 X81.344 Y25.718 E37.56368
G1 X81.985 Y24.795 E37.64217
G1 X82.448 Y24.251 E37.69207
G1 X82.838 Y23.828 E37.73225
G1 X83.457 Y23.256 E37.79112
G1 X83.986 Y22.845 E37.83791
G1 X84.428 Y22.524 E37.87606
G1 X85.175 Y22.071 E37.93708
G1 X85.903 Y21.712 E37.99378
G1 X86.489 Y21.473 E38.03798
G1 X86.971 Y21.307 E38.07359
G1 X87.509 Y21.142 E38.11289
G1 X88.466 Y20.934 E38.1813
G1 X89.56 Y20.819 E38.25813
G1 X90.285 Y20.815 E38.30877
G1 X91.675 Y20.858 E38.4059
G1 X92.918 Y20.915 E38.49281
G1 X95.551 Y20.959 E38.67674
G1 X98.26 Y20.93 E38.86597
G1 X100.916 Y20.825 E39.05162
G1 X102.113 Y20.744 E39.13542
G1 X103.316 Y20.677 E39.21958
G1 X106.509 Y20.728 E39.44262
G1 X109.246 Y20.692 E39.63381
G1 X111.865 Y20.583 E39.8169
G1 X115.176 Y20.334 E40.04881
G1 X116.786 Y20.201 E40.16164
G1 X117.516 Y20.209 E40.21264
G1 X118.203 Y20.244 E40.26068
G1 X119.484 Y20.341 E40.35041
G1 X122.192 Y20.506 E40.53991
G1 X124.865 Y20.595 E40.72671
G1 X127.539 Y20.609 E40.91348
G1 X131.629 Y20.496 E41.19926
G1 X132.371 Y20.518 E41.25111
G1 X133.28 Y20.625 E41.31504
G1 X133.781 Y20.73 E41.35079
G1 X134.269 Y20.844 E41.38579
G1 X134.937 Y21.048 E41.43458
G1 X135.725 Y21.346 E41.49342
G1 X136.332 Y21.645 E41.54068
G1 X137.05 Y22.05 E41.59826
G1 X137.68 Y22.469 E41.65111
G1 X138.209 Y22.889 E41.69828
G1 X138.877 Y23.502 E41.76161
G1 X139.302 Y23.94 E41.80424
G1 X139.873 Y24.645 E41.8676
G1 X140.44 Y25.482 E41.93822
G1 X140.914 Y26.38 E42.00914
G1 X141.271 Y27.236 E42.07392
G1 X141.57 Y28.186 E42.14348
G1 X141.734 Y28.904 E42.19492
G1 X141.905 Y29.906 E42.26592
G1 X141.994 Y30.482 E42.30663
G1 X142.476 Y33.119 E42.49387
G1 X143.037 Y35.758 E42.68231
G1 X143.661 Y38.338 E42.86771
G1 X144.498 Y41.389 E43.08868
G1 X144.582 Y41.674 E43.10944
G1 X144.727 Y42.308 E43.15486
G1 X144.806 Y43.128 E43.2124
G1 X144.813 Y55.249 E44.05901
G1 X144.805 Y60.532 E44.42801
G1 X144.794 Y61.243 E44.47767
G1 X144.744 Y61.89 E44.523
G1 X144.562 Y62.713 E44.58187
G1 X144.318 Y63.507 E44.63989
G1 X143.556 Y66.113 E44.82953
G1 X142.869 Y68.734 E45.01878
G1 X142.271 Y71.312 E45.20363
G1 X141.734 Y73.965 E45.39269
G1 X141.282 Y76.574 E45.57763
G1 X140.899 Y79.234 E45.76534
G1 X140.593 Y81.893 E45.95228
G1 X140.361 Y84.558 E46.13913
G1 X140.205 Y87.228 E46.32594
G1 X140.12 Y90.166 E46.53123
G1 X140.109 Y90.87 E46.58041
G1 X140.059 Y91.517 E46.62573
G1 X139.93 Y92.154 E46.67113
G1 X139.724 Y92.77 E46.7165
G1 X139.443 Y93.356 E46.76189
G1 X139.093 Y93.903 E46.80725
G1 X138.678 Y94.403 E46.85263
G1 X138.205 Y94.848 E46.89799
G1 X137.681 Y95.232 E46.94337
G1 X137.114 Y95.549 E46.98874
G1 X136.512 Y95.793 E47.03411
G1 X135.885 Y95.962 E47.07946
G1 X134.883 Y96.077 E47.14991
G1 X119.001 Y96.076 E48.25921
G1 X118.3 Y96.066 E48.30818
G1 X117.407 Y95.978 E48.37085
G1 X116.538 Y95.816 E48.43259
G1 X115.454 Y95.599 E48.50981
G1 X112.832 Y95.15 E48.69561
G1 X110.166 Y94.77 E48.8837
G1 X107.513 Y94.469 E49.07019
G1 X104.861 Y94.244 E49.25609
G1 X102.174 Y94.092 E49.44407
G1 X98.086 Y94.005 E49.72966
G1 X89.954 Y94.004 E50.29765
G1 X89.256 Y93.994 E50.34641
G1 X88.609 Y93.945 E50.39173
G1 X87.972 Y93.817 E50.43711
G1 X87.356 Y93.611 E50.48248
G1 X86.769 Y93.331 E50.52791
G1 X86.222 Y92.982 E50.57323
G1 X85.721 Y92.568 E50.61862
G1 X85.276 Y92.095 E50.66398
G1 X84.891 Y91.571 E50.7094
G1 X84.574 Y91.004 E50.75477
G1 X84.329 Y90.403 E50.8001
G1 X84.16 Y89.776 E50.84546
G1 X84.061 Y89.017 E50.89892
G1 X84.026 Y88.401 E50.94201
G1 X83.955 Y86.756 E51.05702
G1 X83.762 Y84.056 E51.24608
G1 X83.496 Y81.405 E51.43218
G1 X83.148 Y78.711 E51.62191
G1 X82.736 Y76.1 E51.80653
G1 X82.243 Y73.459 E51.99418
G1 X81.684 Y70.863 E52.17966
G1 X81.038 Y68.247 E52.36787
G1 X80.33 Y65.682 E52.55372
G1 X79.532 Y63.082 E52.74368
G1 X78.682 Y60.572 E52.92878
G1 X77.561 Y57.557 E53.15345
G1 X77.373 Y56.936 E53.19877
G1 X77.262 Y56.295 E53.2442
G1 X77.22 Y55.377 E53.30839
G1 X77.221 Y48.348 E53.79934
G1 X77.232 Y47.642 E53.84866
G1 X77.292 Y46.861 E53.90337
G1 X77.931 Y44.076 E54.10294
G1 X78.459 Y41.449 E54.2901
M204 S3000
M205 X10 Y10
G1 F2400 E48.2901
;MESH:feet.stl
G0 F3000 X85.589 Y34.498
G0 X86.398 Y33.777
G0 X86.526 Y30.725
M204 S1800
M205 X8 Y8
;TYPE:WALL-INNER
G1 F2400 E54.2901
G1 F1800 X86.526 Y31.316 E54.33138
G1 X86.605 Y31.908 E54.37309
G1 X86.836 Y32.583 E54.42292
G1 X87.19 Y33.192 E54.47213
G1 X87.669 Y33.729 E54.52239
G1 X88.25 Y34.165 E54.57312
G1 X88.776 Y34.42 E54.61395
G1 X89.346 Y34.605 E54.65581
G1 X89.93 Y34.672 E54.69687
G1 X90.408 Y34.664 E54.73026
G1 X90.878 Y34.595 E54.76344
G1 X91.324 Y34.465 E54.79588
G1 X91.882 Y34.224 E54.83834
G1 X92.377 Y33.877 E54.88056
G1 X92.719 Y33.562 E54.91304
G1 X93.1 Y33.104 E54.95465
G1 X93.442 Y32.47 E55.00496
G1 X93.614 Y31.907 E55.04608
G1 X93.693 Y31.437 E55.07937
G1 X93.709 Y30.964 E55.11243
G1 X93.652 Y30.377 E55.15362
G1 X93.44 Y29.689 E55.2039
G1 X93.1 Y29.058 E55.25397
G1 X92.722 Y28.602 E55.29534
G1 X92.374 Y28.281 E55.3284
G1 X91.987 Y28.01 E55.3614
G1 X91.561 Y27.788 E55.39495
G1 X91.11 Y27.624 E55.42847
G1 X90.531 Y27.498 E55.46986
G1 X90.181 Y27.492 E55.49431
G1 X89.941 Y27.488 E55.51108
G1 X89.345 Y27.557 E55.55298
G1 X88.775 Y27.74 E55.5948
G1 X88.25 Y27.994 E55.63553
G1 X87.671 Y28.43 E55.68616
G1 X87.278 Y28.869 E55.72731
G1 X86.943 Y29.363 E55.769
G1 X86.67 Y30.017 E55.8185
G1 X86.526 Y30.725 E55.86896
M204 S3000
M205 X10 Y10
G0 F3000 X85.966 Y30.669
M204 S1800
M205 X8 Y8
G1 F1800 X85.966 Y31.353 E55.91674
G1 X86.057 Y32.037 E55.96493
G1 X86.324 Y32.817 E56.02252
G1 X86.735 Y33.523 E56.07958
G1 X87.288 Y34.143 E56.1376
G1 X87.957 Y34.646 E56.19607
G1 X88.567 Y34.941 E56.24339
G1 X89.227 Y35.155 E56.29185
G1 X89.903 Y35.233 E56.33938
G1 X90.454 Y35.224 E56.37787
G1 X90.997 Y35.143 E56.41622
G1 X91.514 Y34.993 E56.45382
G1 X92.156 Y34.715 E56.50268
G1 X92.729 Y34.314 E56.55153
G1 X93.125 Y33.948 E56.5892
