; G-Code generated by Simplify3D(R) Version 4.1.2
; Apr 2, 2022 at 11:21:38 PM
; Settings Summary
;   processName,Process1
;   applyToModels,PIPE-HOLDER,SCREW-CAP
;   profileName,pla1.75 (modified)
;   profileVersion,2017-08-12 22:38:18
;   baseProfile,Default (modified)
;   printMaterial,PLA
;   printQuality,Medium
;   printExtruders,
;   extruderName,Primary Extruder
;   extruderToolheadNumber,0
;   extruderDiameter,0.4
;   extruderAutoWidth,1
;   extruderWidth,0.48
;   extrusionMultiplier,1
;   extruderUseRetract,1
;   extruderRetractionDistance,3
;   extruderExtraRestartDistance,0
;   extruderRetractionZLift,0
;   extruderRetractionSpeed,1500
;   extruderUseCoasting,0
;   extruderCoastingDistance,0.2
;   extruderUseWipe,0
;   extruderWipeDistance,5
;   primaryExtruder,0
;   layerHeight,0.3
;   topSolidLayers,3
;   bottomSolidLayers,3
;   perimeterOutlines,3
;   printPerimetersInsideOut,1
;   startPointOption,1
;   startPointOriginX,0
;   startPointOriginY,0
;   sequentialIslands,0
;   spiralVaseMode,0
;   firstLayerHeightPercentage,100
;   firstLayerWidthPercentage,100
;   firstLayerUnderspeed,0.5
;   useRaft,0
;   raftExtruder,0
;   raftTopLayers,2
;   raftBaseLayers,2
;   raftOffset,3
;   raftSeparationDistance,0.15
;   raftTopInfill,100
;   aboveRaftSpeedMultiplier,0.3
;   useSkirt,1
;   skirtExtruder,0
;   skirtLayers,1
;   skirtOutlines,4
;   skirtOffset,1.4
;   usePrimePillar,0
;   primePillarExtruder,999
;   primePillarWidth,12
;   primePillarLocation,7
;   primePillarSpeedMultiplier,1
;   useOozeShield,0
;   oozeShieldExtruder,999
;   oozeShieldOffset,2
;   oozeShieldOutlines,1
;   oozeShieldSidewallShape,1
;   oozeShieldSidewallAngle,30
;   oozeShieldSpeedMultiplier,1
;   infillExtruder,0
;   internalInfillPattern,Rectilinear
;   externalInfillPattern,Rectilinear
;   infillPercentage,80
;   outlineOverlapPercentage,30
;   infillExtrusionWidthPercentage,100
;   minInfillLength,5
;   infillLayerInterval,1
;   internalInfillAngles,45,-45
;   overlapInternalInfillAngles,0
;   externalInfillAngles,45,-45
;   generateSupport,1
;   supportExtruder,0
;   supportInfillPercentage,30
;   supportExtraInflation,0
;   supportBaseLayers,0
;   denseSupportExtruder,0
;   denseSupportLayers,0
;   denseSupportInfillPercentage,50
;   supportLayerInterval,1
;   supportHorizontalPartOffset,0.3
;   supportUpperSeparationLayers,1
;   supportLowerSeparationLayers,1
;   supportType,0
;   supportGridSpacing,1.6
;   maxOverhangAngle,0
;   supportAngles,0
;   temperatureName,Primary Extruder,bed
;   temperatureNumber,0,1
;   temperatureSetpointCount,2,1
;   temperatureSetpointLayers,1,2,1
;   temperatureSetpointTemperatures,200,195,50
;   temperatureStabilizeAtStartup,0,1
;   temperatureHeatedBed,0,1
;   fanLayers,1,2
;   fanSpeeds,0,100
;   blipFanToFullPower,0
;   adjustSpeedForCooling,0
;   minSpeedLayerTime,15
;   minCoolingSpeedSlowdown,20
;   increaseFanForCooling,0
;   minFanLayerTime,45
;   maxCoolingFanSpeed,100
;   increaseFanForBridging,0
;   bridgingFanSpeed,100
;   use5D,1
;   relativeEdistances,0
;   allowEaxisZeroing,1
;   independentExtruderAxes,0
;   includeM10123,0
;   stickySupport,1
;   applyToolheadOffsets,0
;   gcodeXoffset,0
;   gcodeYoffset,0
;   gcodeZoffset,0
;   overrideMachineDefinition,0
;   machineTypeOverride,1
;   strokeXoverride,200
;   strokeYoverride,200
;   strokeZoverride,200
;   originOffsetXoverride,0
;   originOffsetYoverride,150
;   originOffsetZoverride,0.8
;   homeXdirOverride,-1
;   homeYdirOverride,-1
;   homeZdirOverride,0
;   flipXoverride,1
;   flipYoverride,-1
;   flipZoverride,1
;   toolheadOffsets,0,0|0,0|0,0|0,0|0,0|0,0
;   overrideFirmwareConfiguration,0
;   firmwareTypeOverride,RepRap (Marlin/Repetier/Sprinter)
;   GPXconfigOverride,r2
;   baudRateOverride,115200
;   overridePrinterModels,0
;   printerModelsOverride
;   startingGcode,G28 ; Home,
;   layerChangeGcode,
;   retractionGcode,
;   toolChangeGcode,
;   endingGcode,;End GCode,M104 S0 ;extruder heater off,M140 S0 ;heated bed heater off (if you have it),G91 ;relative positioning,G1 E-1 F300 ;retract the filament a bit before lifting the nozzle,to release some of the pressure,G1 Z+0.5 E-5 X-20 Y-20 F9000 ;move Z up a bit and retract filament even more,G28 X0 Y0 ;move X/Y to min endstops,so the head is out of the way,G1 Y150 F5000 ;move completed part out,M84 ;steppers off,G90 ;absolute positioning,M107 ;Turn off Fan
;   exportFileFormat,gcode
;   celebration,0
;   celebrationSong,Random Song
;   postProcessing,
;   defaultSpeed,3600
;   outlineUnderspeed,0.5
;   solidInfillUnderspeed,1
;   supportUnderspeed,0.5
;   rapidXYspeed,6000
;   rapidZspeed,1002
;   minBridgingArea,50
;   bridgingExtraInflation,0
;   bridgingExtrusionMultiplier,1
;   bridgingSpeedMultiplier,1
;   useFixedBridgingAngle,0
;   fixedBridgingAngle,0
;   applyBridgingToPerimeters,0
;   filamentDiameters,1.75|1.75|1.75|1.75|1.75|1.75
;   filamentPricesPerKg,46|46|46|46|46|46
;   filamentDensities,1.25|1.25|1.25|1.25|1.25|1.25
;   useMinPrintHeight,0
;   minPrintHeight,0
;   useMaxPrintHeight,0
;   maxPrintHeight,0
;   useDiaphragm,0
;   diaphragmLayerInterval,20
;   robustSlicing,1
;   mergeAllIntoSolid,0
;   onlyRetractWhenCrossingOutline,1
;   retractBetweenLayers,1
;   useRetractionMinTravel,0
;   retractionMinTravel,3
;   retractWhileWiping,0
;   onlyWipeOutlines,1
;   avoidCrossingOutline,0
;   maxMovementDetourFactor,3
;   toolChangeRetractionDistance,12
;   toolChangeExtraRestartDistance,-0.5
;   toolChangeRetractionSpeed,600
;   externalThinWallType,0
;   internalThinWallType,2
;   thinWallAllowedOverlapPercentage,10
;   singleExtrusionMinLength,1
;   singleExtrusionMinPrintingWidthPercentage,50
;   singleExtrusionMaxPrintingWidthPercentage,200
;   singleExtrusionEndpointExtension,0.2
;   horizontalSizeCompensation,0
G90
M82
M106 S0
M140 S50
M190 S50
M104 S200 T0
G28 ; Home
; process Process1
; layer 1, Z = 0.300
T0
G92 E0.0000
G1 E-3.0000 F1500
; feature skirt
; tool H0.300 W0.480
G1 Z0.300 F1002
G1 X58.554 Y60.191 F6000
G1 E0.0000 F1500
G92 E0.0000
G1 X58.752 Y60.212 E0.0119 F1800
G1 X59.583 Y60.357 E0.0624
G1 X59.776 Y60.404 E0.0743
G1 X60.275 Y60.558 E0.1055
G1 X60.460 Y60.630 E0.1175
G1 X61.257 Y60.995 E0.1699
G1 X61.488 Y61.126 E0.1858
G1 X62.238 Y61.642 E0.2403
G1 X62.442 Y61.811 E0.2562
G1 X63.093 Y62.447 E0.3107
G1 X63.266 Y62.648 E0.3266
G1 X63.797 Y63.387 E0.3810
G1 X63.933 Y63.614 E0.3969
G1 X64.316 Y64.403 E0.4494
G1 X64.391 Y64.587 E0.4613
G1 X64.553 Y65.071 E0.4918
G1 X64.599 Y65.240 E0.5024
G1 X64.735 Y65.880 E0.5415
G1 X64.761 Y66.055 E0.5521
G1 X64.824 Y66.719 E0.5920
G1 X64.830 Y66.897 E0.6027
G1 X64.819 Y67.408 E0.6333
G1 X64.802 Y67.606 E0.6452
G1 X64.671 Y68.473 E0.6977
G1 X64.608 Y68.731 E0.7135
G1 X64.330 Y69.562 E0.7660
G1 X64.255 Y69.746 E0.7779
G1 X64.027 Y70.216 E0.8092
G1 X63.929 Y70.388 E0.8211
G1 X63.448 Y71.121 E0.8736
G1 X63.284 Y71.330 E0.8895
G1 X62.662 Y71.994 E0.9439
G1 X62.464 Y72.171 E0.9598
G1 X61.737 Y72.718 E1.0143
G1 X61.512 Y72.859 E1.0302
G1 X60.732 Y73.259 E1.0827
G1 X60.550 Y73.338 E1.0946
G1 X60.059 Y73.514 E1.1258
G1 X59.867 Y73.569 E1.1377
G1 X59.011 Y73.756 E1.1902
G1 X58.748 Y73.790 E1.2061
G1 X57.839 Y73.829 E1.2606
G1 X57.574 Y73.818 E1.2764
G1 X56.671 Y73.701 E1.3309
G1 X56.412 Y73.644 E1.3468
G1 X55.554 Y73.378 E1.4006
G1 X55.329 Y73.288 E1.4151
G1 X54.714 Y72.984 E1.4562
G1 X54.560 Y72.897 E1.4668
G1 X53.971 Y72.517 E1.5087
G1 X53.777 Y72.369 E1.5233
G1 X53.108 Y71.768 E1.5772
G1 X52.926 Y71.574 E1.5931
G1 X52.363 Y70.860 E1.6475
G1 X52.218 Y70.638 E1.6634
G1 X51.786 Y69.837 E1.7179
G1 X51.680 Y69.594 E1.7338
G1 X51.402 Y68.762 E1.7863
G1 X51.351 Y68.570 E1.7982
G1 X51.251 Y68.058 E1.8294
G1 X51.225 Y67.861 E1.8413
G1 X51.171 Y67.019 E1.8918
G1 X51.171 Y66.820 E1.9037
G1 X51.204 Y66.300 E1.9349
G1 X51.230 Y66.103 E1.9468
G1 X51.392 Y65.274 E1.9974
G1 X51.443 Y65.082 E2.0093
G1 X51.598 Y64.619 E2.0385
G1 X51.646 Y64.495 E2.0465
G1 X51.840 Y64.047 E2.0757
G1 X51.930 Y63.870 E2.0876
G1 X52.380 Y63.117 E2.1401
G1 X52.535 Y62.902 E2.1560
G1 X53.128 Y62.212 E2.2104
G1 X53.317 Y62.026 E2.2263
G1 X54.020 Y61.448 E2.2808
G1 X54.239 Y61.298 E2.2967
G1 X55.030 Y60.848 E2.3512
G1 X55.271 Y60.738 E2.3670
G1 X56.096 Y60.442 E2.4195
G1 X56.288 Y60.387 E2.4314
G1 X56.797 Y60.275 E2.4627
G1 X56.994 Y60.245 E2.4746
G1 X57.834 Y60.173 E2.5251
G1 X58.033 Y60.169 E2.5370
G1 X58.554 Y60.191 E2.5682
G92 E0.0000
G1 E-3.0000 F1500
G1 X54.938 Y72.560 F6000
G1 E0.0000 F1500
G92 E0.0000
G1 X54.809 Y72.486 E0.0089 F1800
G1 X54.248 Y72.124 E0.0489
G1 X54.084 Y71.999 E0.0613
G1 X53.444 Y71.425 E0.1127
G1 X53.291 Y71.261 E0.1261
G1 X52.753 Y70.579 E0.1781
G1 X52.630 Y70.392 E0.1915
G1 X52.218 Y69.627 E0.2435
G1 X52.129 Y69.422 E0.2570
G1 X51.862 Y68.625 E0.3073
G1 X51.819 Y68.462 E0.3173
G1 X51.725 Y67.981 E0.3467
G1 X51.703 Y67.814 E0.3568
G1 X51.651 Y67.003 E0.4054
G1 X51.651 Y66.835 E0.4155
G1 X51.682 Y66.346 E0.4448
G1 X51.704 Y66.180 E0.4549
G1 X51.860 Y65.382 E0.5035
G1 X51.903 Y65.220 E0.5136
G1 X52.050 Y64.781 E0.5413
G1 X52.090 Y64.676 E0.5480
G1 X52.274 Y64.252 E0.5757
G1 X52.351 Y64.103 E0.5857
G1 X52.781 Y63.381 E0.6360
G1 X52.912 Y63.199 E0.6495
G1 X53.478 Y62.540 E0.7015
G1 X53.638 Y62.384 E0.7149
G1 X54.309 Y61.832 E0.7669
G1 X54.494 Y61.705 E0.7803
G1 X55.249 Y61.276 E0.8323
G1 X55.453 Y61.182 E0.8457
G1 X56.244 Y60.899 E0.8960
G1 X56.405 Y60.852 E0.9061
G1 X56.884 Y60.748 E0.9354
G1 X57.050 Y60.722 E0.9455
G1 X57.860 Y60.652 E0.9941
G1 X58.028 Y60.649 E1.0042
G1 X58.518 Y60.670 E1.0336
G1 X58.685 Y60.688 E1.0436
G1 X59.486 Y60.827 E1.0923
G1 X59.649 Y60.867 E1.1023
G1 X60.117 Y61.012 E1.1317
G1 X60.274 Y61.072 E1.1417
G1 X61.038 Y61.423 E1.1921
G1 X61.233 Y61.533 E1.2055
G1 X61.949 Y62.026 E1.2575
G1 X62.121 Y62.168 E1.2709
G1 X62.742 Y62.776 E1.3229
G1 X62.888 Y62.945 E1.3363
G1 X63.396 Y63.650 E1.3883
G1 X63.511 Y63.843 E1.4017
G1 X63.878 Y64.599 E1.4520
G1 X63.941 Y64.754 E1.4621
G1 X64.093 Y65.210 E1.4909
G1 X64.132 Y65.353 E1.4997
G1 X64.262 Y65.966 E1.5372
G1 X64.285 Y66.113 E1.5462
G1 X64.345 Y66.750 E1.5844
G1 X64.350 Y66.900 E1.5934
G1 X64.340 Y67.382 E1.6223
G1 X64.325 Y67.549 E1.6323
G1 X64.199 Y68.380 E1.6827
G1 X64.147 Y68.598 E1.6961
G1 X63.880 Y69.395 E1.7464
G1 X63.817 Y69.551 E1.7564
G1 X63.602 Y69.992 E1.7858
G1 X63.520 Y70.138 E1.7959
G1 X63.058 Y70.841 E1.8462
G1 X62.920 Y71.017 E1.8596
G1 X62.326 Y71.650 E1.9116
G1 X62.159 Y71.800 E1.9250
G1 X61.465 Y72.323 E1.9770
G1 X61.275 Y72.441 E1.9904
G1 X60.527 Y72.825 E2.0407
G1 X60.373 Y72.891 E2.0508
G1 X59.911 Y73.057 E2.0802
G1 X59.750 Y73.103 E2.0902
G1 X58.929 Y73.283 E2.1406
G1 X58.706 Y73.312 E2.1540
G1 X57.839 Y73.349 E2.2060
G1 X57.615 Y73.339 E2.2194
G1 X56.754 Y73.228 E2.2714
G1 X56.535 Y73.180 E2.2848
G1 X55.715 Y72.925 E2.3362
G1 X55.525 Y72.849 E2.3484
G1 X54.938 Y72.560 E2.3876
G92 E0.0000
G1 E-3.0000 F1500
G1 X63.634 Y65.350 F6000
G1 E0.0000 F1500
G92 E0.0000
G1 X63.666 Y65.466 E0.0072 F1800
G1 X63.790 Y66.052 E0.0431
G1 X63.808 Y66.172 E0.0504
G1 X63.866 Y66.781 E0.0870
G1 X63.870 Y66.904 E0.0943
G1 X63.860 Y67.356 E0.1214
G1 X63.848 Y67.492 E0.1296
G1 X63.728 Y68.288 E0.1778
G1 X63.685 Y68.465 E0.1887
G1 X63.430 Y69.228 E0.2369
G1 X63.378 Y69.355 E0.2451
G1 X63.177 Y69.768 E0.2726
G1 X63.110 Y69.888 E0.2808
G1 X62.668 Y70.560 E0.3289
G1 X62.555 Y70.703 E0.3399
G1 X61.989 Y71.307 E0.3894
G1 X61.854 Y71.429 E0.4003
G1 X61.193 Y71.927 E0.4499
G1 X61.038 Y72.024 E0.4608
G1 X60.322 Y72.390 E0.5089
G1 X60.196 Y72.445 E0.5171
G1 X59.764 Y72.600 E0.5447
G1 X59.632 Y72.638 E0.5529
G1 X58.846 Y72.809 E0.6010
G1 X58.665 Y72.833 E0.6119
G1 X57.839 Y72.869 E0.6615
G1 X57.656 Y72.861 E0.6724
G1 X56.836 Y72.754 E0.7219
G1 X56.657 Y72.715 E0.7329
G1 X55.875 Y72.472 E0.7819
G1 X55.720 Y72.410 E0.7919
G1 X55.163 Y72.135 E0.8291
G1 X55.057 Y72.075 E0.8364
G1 X54.524 Y71.731 E0.8744
G1 X54.390 Y71.629 E0.8845
G1 X53.780 Y71.081 E0.9335
G1 X53.655 Y70.948 E0.9445
G1 X53.143 Y70.298 E0.9940
G1 X53.043 Y70.146 E1.0049
G1 X52.650 Y69.417 E1.0545
G1 X52.577 Y69.250 E1.0654
G1 X52.322 Y68.487 E1.1136
G1 X52.287 Y68.355 E1.1218
G1 X52.199 Y67.904 E1.1493
G1 X52.181 Y67.768 E1.1575
G1 X52.131 Y66.988 E1.2043
G1 X52.131 Y66.851 E1.2125
G1 X52.160 Y66.393 E1.2400
G1 X52.178 Y66.257 E1.2481
G1 X52.329 Y65.490 E1.2950
G1 X52.364 Y65.357 E1.3032
G1 X52.502 Y64.943 E1.3293
G1 X52.535 Y64.858 E1.3348
G1 X52.708 Y64.457 E1.3609
G1 X52.771 Y64.335 E1.3691
G1 X53.183 Y63.644 E1.4173
G1 X53.290 Y63.496 E1.4282
G1 X53.829 Y62.869 E1.4777
G1 X53.959 Y62.741 E1.4887
G1 X54.598 Y62.215 E1.5382
G1 X54.749 Y62.112 E1.5491
G1 X55.468 Y61.703 E1.5987
G1 X55.634 Y61.627 E1.6096
G1 X56.391 Y61.356 E1.6578
G1 X56.523 Y61.318 E1.6659
G1 X56.972 Y61.220 E1.6935
G1 X57.107 Y61.199 E1.7017
G1 X57.886 Y61.132 E1.7485
G1 X58.023 Y61.129 E1.7566
G1 X58.482 Y61.149 E1.7842
G1 X58.618 Y61.164 E1.7924
G1 X59.388 Y61.297 E1.8392
G1 X59.521 Y61.330 E1.8474
G1 X59.960 Y61.466 E1.8749
G1 X60.088 Y61.515 E1.8831
G1 X60.819 Y61.851 E1.9312
G1 X60.978 Y61.941 E1.9422
G1 X61.660 Y62.410 E1.9917
G1 X61.800 Y62.526 E2.0026
G1 X62.392 Y63.104 E2.0521
G1 X62.511 Y63.243 E2.0631
G1 X62.994 Y63.914 E2.1126
G1 X63.088 Y64.071 E2.1235
G1 X63.439 Y64.795 E2.1717
G1 X63.491 Y64.921 E2.1799
G1 X63.634 Y65.350 E2.2069
G92 E0.0000
G1 E-3.0000 F1500
G1 X52.979 Y65.039 F6000
G1 E0.0000 F1500
G92 E0.0000
G1 X53.143 Y64.662 E0.0246 F1800
G1 X53.191 Y64.568 E0.0309
G1 X53.585 Y63.908 E0.0769
G1 X53.667 Y63.793 E0.0854
G1 X54.179 Y63.197 E0.1324
G1 X54.280 Y63.099 E0.1409
G1 X54.887 Y62.599 E0.1880
G1 X55.004 Y62.519 E0.1964
G1 X55.687 Y62.131 E0.2435
G1 X55.816 Y62.072 E0.2519
G1 X56.539 Y61.813 E0.2979
G1 X56.641 Y61.784 E0.3043
G1 X57.059 Y61.692 E0.3299
G1 X57.164 Y61.676 E0.3363
G1 X57.912 Y61.612 E0.3812
G1 X58.018 Y61.609 E0.3875
G1 X58.446 Y61.628 E0.4132
G1 X58.551 Y61.639 E0.4195
G1 X59.291 Y61.768 E0.4645
G1 X59.394 Y61.793 E0.4708
G1 X59.803 Y61.920 E0.4965
G1 X59.902 Y61.958 E0.5028
G1 X60.600 Y62.278 E0.5488
G1 X60.723 Y62.348 E0.5573
G1 X61.370 Y62.793 E0.6043
G1 X61.480 Y62.883 E0.6128
G1 X62.041 Y63.433 E0.6598
G1 X62.133 Y63.540 E0.6683
G1 X62.593 Y64.178 E0.7153
G1 X62.665 Y64.299 E0.7238
G1 X63.000 Y64.990 E0.7698
G1 X63.040 Y65.088 E0.7761
G1 X63.174 Y65.489 E0.8014
G1 X63.199 Y65.579 E0.8070
G1 X63.317 Y66.138 E0.8412
G1 X63.331 Y66.231 E0.8469
G1 X63.386 Y66.813 E0.8818
G1 X63.390 Y66.907 E0.8875
G1 X63.381 Y67.330 E0.9128
G1 X63.372 Y67.436 E0.9192
G1 X63.256 Y68.195 E0.9652
G1 X63.223 Y68.333 E0.9736
G1 X62.979 Y69.061 E1.0196
G1 X62.939 Y69.159 E1.0260
G1 X62.752 Y69.545 E1.0516
G1 X62.700 Y69.637 E1.0580
G1 X62.278 Y70.279 E1.1040
G1 X62.191 Y70.390 E1.1124
G1 X61.653 Y70.964 E1.1595
G1 X61.548 Y71.058 E1.1679
G1 X60.920 Y71.531 E1.2150
G1 X60.801 Y71.606 E1.2234
G1 X60.117 Y71.956 E1.2694
G1 X60.020 Y71.998 E1.2758
G1 X59.616 Y72.143 E1.3014
G1 X59.515 Y72.172 E1.3078
G1 X58.764 Y72.336 E1.3538
G1 X58.624 Y72.354 E1.3622
G1 X57.839 Y72.388 E1.4093
G1 X57.698 Y72.382 E1.4177
G1 X56.918 Y72.281 E1.4648
G1 X56.780 Y72.251 E1.4733
G1 X56.035 Y72.019 E1.5199
G1 X55.916 Y71.972 E1.5276
G1 X55.388 Y71.711 E1.5629
G1 X55.306 Y71.665 E1.5685
G1 X54.800 Y71.338 E1.6046
G1 X54.697 Y71.259 E1.6124
G1 X54.116 Y70.738 E1.6591
G1 X54.019 Y70.635 E1.6675
G1 X53.533 Y70.017 E1.7146
G1 X53.456 Y69.899 E1.7231
G1 X53.082 Y69.208 E1.7701
G1 X53.026 Y69.078 E1.7786
G1 X52.782 Y68.349 E1.8246
G1 X52.755 Y68.247 E1.8309
G1 X52.673 Y67.826 E1.8566
G1 X52.659 Y67.721 E1.8629
G1 X52.611 Y66.972 E1.9078
G1 X52.611 Y66.866 E1.9142
G1 X52.638 Y66.439 E1.9398
G1 X52.652 Y66.334 E1.9462
G1 X52.797 Y65.597 E1.9911
G1 X52.824 Y65.495 E1.9975
G1 X52.954 Y65.105 E2.0221
G1 X52.979 Y65.039 E2.0263
G92 E0.0000
G1 E-3.0000 F1500
G1 X134.830 Y78.285 F6000
G1 E0.0000 F1500
G92 E0.0000
G1 X133.026 Y80.090 E0.1528 F1800
G1 X66.974 Y80.090 E4.1072
G1 X65.170 Y78.285 E4.2599
G1 X65.170 Y55.734 E5.6100
G1 X66.974 Y53.930 E5.7628
G1 X133.026 Y53.930 E9.7172
G1 X134.830 Y55.734 E9.8699
G1 X134.830 Y59.371 E10.0877
G1 X134.830 Y62.934 E10.3010
G1 X134.830 Y66.988 E10.5437
G1 X134.830 Y71.085 E10.7890
